X:1
T:Daniel Selich
T:Psalmen Davids etc. (1625)
T:Meine seele ist betrübt
T:Tempore Passionis
%%score [ 1 2 3 ] 4
L:1/8
Q:1/4=120
M:none
K:F
V:1 treble nm="Midi_74"
V:2 treble-8 nm="Midi_74"
V:3 bass nm="Midi_74"
V:4 bass nm="Midi_74"
V:1
 z8 ^F12 | G4 A8 B8 | B4 A4 G4 G4 x2 | ^F8 G6 =F2 | _E4 E4 x8 | D4 d6 c2 B4 | A8 z4 A4 x4 | %7
w: Mei-|ne See- le|ist * * be-|trübt * *|* be-|trübt * * *|* bisz|
w: |||* ist *||* ist * be-|trübt *|
 c8 B4 A6 | GF G4 A16 | z4 E4- x8 | E4 ^F4 G4 z2 G2 | A2 G2 F4 E2 E2 F2 E2 | (^F2 G4) F2 G3 A B4 | %13
w: an * den|* * * todt/|blei-|* bet hier und|wa- chet mit mir/ und wa- chet|mit * * mir: * und|
w: ||||||
 A2 G2 A4 =B8 | c4 A3 B c8 | z8 z4 A4 | B4 G4 ^F4 F4 | G4 _E4 D4 z2 G2- | G2 G4 ^F2 G4 d2 d2 | %19
w: wa- chet mit mir|Sie- het * *|die|stund ist hier *||* * * * dasz des|
w: |||* * * die|stund ist hier, die|* stund ist hier * *|
 B2 c2 d2 A2 B2 G2 A4 | z4 d6 c2 B2 A2 | G4 G4 c6 B2 x2 | A2 G2 F4 F4 B2 A2 | G4 c2 c4 B2 B4- | %24
w: men- schen Son/ des men- schen Sohn|in der Sün- der|Hän- de/ in der|* * * * in der|Sün- der Hän- * *|
w: |||Sün- der Hän- de * *||
 B2 AG A4 B8 | z4 z2 B2 G2 A2 B2 G2 | ^F2 z4 z4 z2 d2 c2 | B2 A2 G4 c4 B4 | A4 A4 d6 c2 | %29
w: * * * * de|u- ber- ant- wor- tet|wird u- *|* * * ber- ant-|wor- tet, in der|
w: |||||
 B4 A4 G4 F2 E2 | D4 E4 ^F4 G6 x2 | ^FE F4 G2 A2 =B4 x2 | c6 d2 _e4 d4 | c8 B8 | A2 B2 A2 B2 A16 |] %35
w: Sün- der hän- de u-|ber- ant- wort- tet|* * * wird/ * *|in der Sün- der|händ u-|ber- ant- wor- tet wird|
w: ||||||
V:2
 d12 c2 B2 x4 | A8 d4 _e6 x2 | d4 c2 B2 c2 d8 | d4 A4 B6 A2 | G4 c4 c4- x4 | c4 B2 A2 B2 A2 G4- | %6
w: Mei- * *|* ne See-||le ist be- *|* trübt, be-|* * * * * trübt|
w: ||||||
 G2 ^FE F4 z8 x4 | A6 G4 F2 f2 e2 x2 | d4 d8 ^c2 =B2 x6 | ^c8 z4 c4- | c4 d4 d4 z2 =B2 | %11
w: |bis an den todt/ bis|an den * *|todt/ blei-|* bet hier und|
w: |||||
 ^c2 c2 d4 c2 c2 d2 c2 | d2 cB A4 d4 d3 e | ^f2 g4 f2 g8 | z4 c4 A4 z2 A2 | B4 G4 ^F4 ^f4 | %16
w: wa- chet mit mir/ und wa- chet|mit * * * mir/ mit *|* * * mir/|Sie- het/ die|Stund ist hier/ *|
w: ||||* * * die|
 g4 _e4 d4 d4 | B4 c4 A4 B4 | _e4 d4 d4 d2 d2 | g2 _e2 d2 d2 B2 c2 d2 A2 | d2 B2 A4 z4 g4- | %21
w: |* * * die|Stund is hie/ dasz des|Men- schen Sohn/ des Men- schen Sohn *|* * * in|
w: Stund ist hier/ die|Stund ist hier *||* * * * * * * des|Men- schen Sohn *|
 g2 f2 _e2 d2 (e2 d2) c4 x2 | f6 _e2 d2 c2 (d2 c2) | B4 _e4 d4 G2 B2 | c8 F2 d2 B2 c2 | %25
w: * der Sün- der Hän- * de|||* * ü- ber- ant-|
w: |in der Sün- der Hän- *|de, in der Sün- der|Hän- de * * *|
 d2 cB A2 d2 _e2 d4 c2 | d2 z g _e2 f2 g2 e2 d4 | g6 f2 _e4 d4 | d6 e2 f6 ef | g4 d2 c2 B4 A4 | %30
w: wor- tet * wird/ ant- wor- tet *|wird/ ü- ber- ant- wor- tet wird/|ü- * ber- ant-|wor- tet wird * *|* ü- * ber- ant-|
w: |||||
 F4 c6 B2 B2 AG x4 | A4 A4 (=B2 c2 d4) | _e6 d2 c4 d4 | _e6 f2 g2 d2 g4 | ^f2 g2 f2 g2 f16 |] %35
w: wor- * * * * *|* tet werd/ * *|ü- * ber- ant-|wor- * * tet/ ü-|ber- ant- wor- tet wird.|
w: |||||
V:3
 z16 x4 | D,12 C,4 x4 | B,,6 A,,2 G,,4 ^F,,4 x2 | G,,2 A,,2 B,,2 C,2 D,8 | _E,6 D,2 C,8 | G,,16 | %6
w: |Mei- ne|See- * * le|ist * * * *|be- * *||
w: ||||||
w: ||||||
 D,4 D,4 F,12 | _E,4 D,6 C,2 B,,4 x2 | B,,4 A,,16 x2 | z4 A,4- x8 | A,4 D,4 G,4 z2 G,2 | %11
w: trübt bisz an||den Todt/|blei-|* bet hier/ und|
w: |||||
w: |||||
 F,2 E,2 D,4 A,,8 | D,8 B,,4 G,,4 | D,8 G,,8 | z4 F,,4 F,4 z2 F,2 | G,4 _E,4 D,4 D,4 | %16
w: wa- chet mit mir/|||Sie- he/ die|Stund ist hie/ die|
w: |uns wa- chet|mit mir|||
w: |||||
 B,,4 C,4 D,4 D,4 | _E,4 C,4 D,4 G,,4 | C,4 D,4 G,,8 | z4 D,2 D,2 G,2 _E,2 D,2 D,2 | %20
w: stund ist hie *|||dasz des Men- schen Son/ des|
w: * * * die|Stund ist hier/ die|Stund ist hier||
w: ||||
 B,,2 G,,2 D,4 G,6 F,2 | _E,2 D,2 C,4 C,4 F,6 | _E,2 D,2 C,2 B,,4 B,,4 x2 | _E,2 D,2 C,4 D,4 E,4 | %24
w: Men- schen Sohn in der|Sün- der Hän- de/ *||in der Sün- der *|
w: |* * * * in|der Sün- der Hän- de||
w: ||||
 C,8 B,,2 B,2 G,2 A,2 | B,2 G,2 F,2 G,2 _E,2 F,2 G,2 E,2 | D,2 _E,2 C,2 D,2 E,2 C,2 B,,4 | %27
w: Hän- de ü- ber- ant-|wor- tet wird * * * * *||
w: ||wird, ü- ber- ant- wor- tet wird,|
w: |* * * ü- ber- ant- wor- tet||
 _E,6 D,2 C,4 G,,2 G,,2 | D,6 C,2 B,,4 A,,4 | G,,4 F,,4 G,,4 A,,4 | B,,4 C,4 D,12 | D,4 G,,8 x4 | %32
w: ü- * * ber- ant-|wor- * * *|||tet wird,|
w: |||||
w: |||||
 C,8 C,4 =B,,4 | C,8 G,,8 | D,8- D,16 |] %35
w: ü- ber ant-|wor- tet|wird. *|
w: |||
w: |||
V:4
 D8- D4 C2 B,2 x4 | D,8 D,4 C,4 x4 | B,,6 A,,2 G,,4 ^F,,4 x2 | G,,2 A,,2 B,,2 C,2 D,4- D,4 | %4
 _E,6 D,2 C,8 | G,,8- G,,8 | D,4 D,4 F,8- x4 | F,4 _E,4 D,6 C,2 x2 | B,,4 B,,4 A,,8- x6 | %9
 A,,8 z4 A,4- | A,4 D,4 G,4 z2 G,2 | F,2 E,2 D,4 A,,4- A,,4 | D,8 B,,4 G,,4 | D,8 G,,8 | %14
 F,,8 F,6 F,2 | G,4 _E,4 D,4 D,4 | B,,4 C,4 D,6 D,2 | _E,4 C,4 D,4 G,,4 | C,4 D,4 G,,4 G,4- | %19
 G,2 _E,2 D,2 D,2 G,2 E,2 D,2 D,2 | B,,2 G,,2 D,4 G,6 F,2 | _E,2 D,2 C,4 C,4 F,4- x2 | %22
 F,2 _E,2 D,2 C,2 B,,4 B,,4 | _E,2 D,2 C,4 D,4 E,4 | C,8 B,,2 B,2 G,2 A,2 | %25
 B,2 G,2 F,2 G,2 _E,2 F,2 G,2 E,2 | D,2 _E,2 C,2 D,2 E,2 C,2 B,,4 | _E,6 D,2 C,4 G,,4 | %28
 D,6 C,2 B,,4 A,,4 | G,,4 F,,4 G,,4 A,,4 | B,,4 C,4 D,8- x4 | D,4 D,4 G,,8 | C,8 C,4 =B,,4 | %33
 C,8 G,,8 | D,8 D,16 |] %35

